X: 14650
T: Gan Ainm
R: polka
M: 2/4
K: Aminor
A>B c/A/ z/B/|cd e2|c>A F/E/F/D/|E^G B2|
A>B c/A/ z/B/|cd e2|E/^G/A/B/ c/e/ z/d/|cTB A2:|
|:cE A>B|cA B/A/F|dF B>c|dE d/c/B|
ec/A/ .E.E|ec/A/ .F.F|dc/B/ dc/B/|e/^d/e/f/ e/=d/c/B/|
A>B c/A/B/c/|D>E F/D/E/F/|E/^G/B/e/ d/c/B/c/|A/B/c/^G/ A/e/c/B/|
A>B c/A/B/c/|D>E F/D/E/F/|E/^G/B/e/ d/c/B/c/|E/^G/B/d/ c/B/ A2:|

